symbols/web/tap_and_play/materialsymbolsoutlined/tap_and_play_wght200_48px.svg

<svg xmlns="http://www.w3.org/2000/svg" height="48" width="48"><path d="M12 23.8V6.75q0-1.15.8-1.95t1.95-.8h18.5q1.15 0 1.95.8t.8 1.95v34.5q0 1.15-.8 1.95t-1.95.8H32.2v-1.55h1.05q.45 0 .825-.375.375-.375.375-.825V39.7H32.2v-1.55h2.25V9.85h-20.9V23.8ZM12 44v-4.5q1.9 0 3.2 1.3 1.3 1.3 1.3 3.2Zm8.85 0q0-3.7-2.575-6.275T12 35.15v-1.5q4.25 0 7.3 3.05t3.05 7.3Zm5.8 0q0-6.1-4.275-10.375T12 29.35V27.8q3.35 0 6.325 1.275t5.15 3.45q2.175 2.175 3.45 5.15Q28.2 40.65 28.2 44Zm7.8-4.3v2.75ZM13.55 8.3h20.9V6.75q0-.45-.375-.825-.375-.375-.825-.375h-18.5q-.45 0-.825.375-.375.375-.375.825Zm0-2.75V8.3 5.55Z"/></svg>

<svg xmlns="http://www.w3.org/2000/svg" height="48" width="48"><path d="M12 23.8V6.75Q12 5.6 12.8 4.8Q13.6 4 14.75 4H33.25Q34.4 4 35.2 4.8Q36 5.6 36 6.75V41.25Q36 42.4 35.2 43.2Q34.4 44 33.25 44H32.2V42.45H33.25Q33.7 42.45 34.075 42.075Q34.45 41.7 34.45 41.25V39.7H32.2V38.15H34.45V9.85H13.55V23.8ZM12 44V39.5Q13.9 39.5 15.2 40.8Q16.5 42.1 16.5 44ZM20.85 44Q20.85 40.3 18.275 37.725Q15.7 35.15 12 35.15V33.65Q16.25 33.65 19.3 36.7Q22.35 39.75 22.35 44ZM26.65 44Q26.65 37.9 22.375 33.625Q18.1 29.35 12 29.35V27.8Q15.35 27.8 18.325 29.075Q21.3 30.35 23.475 32.525Q25.65 34.7 26.925 37.675Q28.2 40.65 28.2 44ZM34.45 39.7V41.25Q34.45 41.75 34.45 42.1Q34.45 42.45 34.45 42.45ZM13.55 8.3H34.45V6.75Q34.45 6.3 34.075 5.925Q33.7 5.55 33.25 5.55H14.75Q14.3 5.55 13.925 5.925Q13.55 6.3 13.55 6.75ZM13.55 5.55Q13.55 5.55 13.55 5.9Q13.55 6.25 13.55 6.75V8.3V6.75Q13.55 6.25 13.55 5.9Q13.55 5.55 13.55 5.55Z"/></svg>
